packages/core/src/svgs/tokens/mono/SOPH.svg

<svg width="24" height="24" viewBox="0 0 24 24" fill="none" xmlns="http://www.w3.org/2000/svg">
<path d="M11.9525 7.12718C11.3026 7.51714 10.5876 8.27706 10.4827 9.07699C10.4027 9.65192 10.6727 10.3469 10.9627 10.8469C11.2676 11.3767 11.5926 11.9217 11.9275 12.4817C12.1176 12.7916 12.3475 13.2616 12.3775 13.6215C12.4063 14.0403 12.2878 14.4558 12.0426 14.7964C12.0126 14.8314 11.9875 14.8364 11.9575 14.7964C11.253 13.953 10.6065 13.0627 10.0228 12.1317C9.47281 11.2518 8.7229 9.9219 8.97286 8.822C9.30784 7.38216 10.6877 6.17728 11.9426 5.51234C11.958 5.50379 11.9756 5.49972 11.9932 5.50061C12.011 5.50148 12.028 5.50728 12.0426 5.51735C13.0225 6.17228 13.9424 7.01719 14.5123 8.05209C14.9622 8.86201 15.1122 9.74192 14.9722 10.6918C14.9573 10.7818 14.9322 10.7868 14.8873 10.7069C14.2349 9.45726 13.3724 8.32924 12.3375 7.37216C12.2425 7.28717 12.1425 7.20217 12.0375 7.13218C12.0259 7.12212 12.0113 7.11617 11.9959 7.11527C11.9805 7.11438 11.9653 7.11855 11.9525 7.12718Z" fill="white"/>
<path d="M12.0273 16.1314C12.7068 15.6534 13.2123 14.9672 13.4672 14.1765C13.5407 13.907 13.5572 13.6252 13.5159 13.3489C13.4746 13.0726 13.3763 12.808 13.2272 12.5717C12.9166 12.001 12.5898 11.4392 12.2473 10.8868C12.0474 10.5718 11.8824 10.2369 11.7473 9.87696C11.5474 9.36201 11.6274 8.87707 11.9573 8.44211C11.9774 8.41211 11.9973 8.41211 12.0174 8.43711C12.7719 9.24811 13.4591 10.1192 14.0721 11.0418C14.5221 11.7317 15.087 12.7066 15.0921 13.5566C15.102 14.6065 14.4421 15.6764 13.7471 16.4563C13.2566 17.0083 12.6831 17.4805 12.0474 17.8561C12.0365 17.8635 12.024 17.8682 12.011 17.87C11.998 17.8717 11.9847 17.8703 11.9724 17.8661C11.8974 17.8412 11.8374 17.7861 11.7724 17.7412C9.90757 16.4813 7.67279 14.0715 8.42272 11.5618C8.46271 11.4418 8.50271 11.4418 8.5477 11.5568C8.93206 12.5068 9.44696 13.3986 10.0775 14.2066C10.6135 14.9325 11.2478 15.5803 11.9623 16.1314C11.9824 16.1463 12.0074 16.1463 12.0273 16.1314Z" fill="white"/>
<path d="M6.47785 10.4467C6.49785 11.5865 6.71283 12.6714 7.1278 13.7013C7.83923 15.4913 9.15534 16.9755 10.8474 17.8959C10.9574 17.9559 10.9474 17.9809 10.8275 17.9659C10.159 17.9006 9.51095 17.6998 8.92261 17.376C7.36945 16.5531 6.20222 15.1524 5.67294 13.4763C5.32297 12.3465 5.17299 11.1616 5.02301 9.99672C4.98803 9.71115 4.93121 9.42868 4.85303 9.1518C4.85508 9.14801 4.85794 9.14471 4.86138 9.14212C4.86483 9.13953 4.8688 9.13772 4.87302 9.13681C5.91292 9.1268 6.93281 9.24679 7.92771 9.49677C7.95271 9.50176 7.9727 9.51676 7.98771 9.53676C8.0027 9.55677 8.0127 9.58175 8.0127 9.60176V10.6516C8.0127 10.6594 8.0109 10.667 8.00742 10.674C8.00396 10.6809 7.99892 10.687 7.9927 10.6916C7.98604 10.6976 7.97787 10.7018 7.96908 10.7035C7.96028 10.7053 7.95117 10.7046 7.94271 10.7017C7.46884 10.5519 6.97872 10.4596 6.48286 10.4267L6.47785 10.4366V10.4467ZM17.4818 10.4267C16.9881 10.4544 16.5004 10.5485 16.0319 10.7067C16.0269 10.7067 16.0219 10.7067 16.0168 10.6967L16.0069 10.6866L16.0019 10.6667V9.56176C16.0019 9.52177 16.0168 9.49677 16.0518 9.49176C17.0504 9.25158 18.0745 9.13407 19.1016 9.1418C19.11 9.1441 19.1175 9.14853 19.1237 9.15467C19.1299 9.1608 19.1343 9.16843 19.1365 9.1768V9.2018C19.0816 9.39178 19.0416 9.57676 19.0166 9.75174C18.7666 11.3366 18.6416 13.0364 17.9067 14.4912C17.0818 16.1311 15.442 17.5109 13.6471 17.9009C13.4671 17.9409 13.2921 17.9609 13.1222 17.9659C13.0422 17.9659 13.0371 17.951 13.1071 17.916C15.9068 16.3611 17.3817 13.7164 17.5217 10.4666C17.5225 10.4612 17.522 10.4556 17.5203 10.4505C17.5185 10.4453 17.5156 10.4405 17.5118 10.4366L17.4967 10.4316H17.4818V10.4267Z" fill="white"/>
<path d="M4.07863 14.9014C4.18862 15.0513 4.3086 15.1963 4.44359 15.3312C5.2785 16.2212 6.3384 16.9811 7.43328 17.541C8.23321 17.9511 9.04812 18.221 9.88308 18.356C10.038 18.381 10.038 18.401 9.87806 18.4159C9.61307 18.441 9.35809 18.466 9.12312 18.4809C7.3733 18.6259 5.73846 17.921 4.4086 16.7811C3.92864 16.3712 3.45869 15.9513 2.98374 15.5062C2.68333 15.2259 2.35688 14.9747 2.00883 14.7564C2.00163 14.7446 1.99871 14.7307 2.00053 14.7171C2.00235 14.7034 2.00881 14.6908 2.01884 14.6814C2.80118 14.0478 3.67852 13.5416 4.61858 13.1815C4.65357 13.1665 4.67357 13.1815 4.68356 13.2165C4.80319 13.6298 4.96398 14.0302 5.16352 14.4114C5.16412 14.4188 5.1631 14.4261 5.16051 14.4331C5.15791 14.44 5.15381 14.4462 5.14852 14.4514C4.77707 14.5572 4.41702 14.6996 4.07362 14.8763C4.07257 14.8806 4.07248 14.885 4.07334 14.8894C4.07421 14.8937 4.07601 14.8978 4.07863 14.9014ZM19.897 14.9163C19.917 14.8863 19.912 14.8664 19.882 14.8463C19.562 14.6914 19.2221 14.5613 18.8571 14.4613C18.8221 14.4514 18.8121 14.4314 18.8321 14.4014C19.0371 14.0111 19.2014 13.6006 19.3221 13.1765C19.3261 13.1748 19.3303 13.1738 19.3346 13.1738C19.3389 13.1738 19.3432 13.1748 19.3471 13.1765C20.3089 13.5342 21.2043 14.0496 21.9968 14.7013C21.9996 14.7088 22.0006 14.7166 21.9997 14.7244C21.9989 14.7322 21.9962 14.7398 21.9919 14.7463C21.9879 14.7524 21.9829 14.7575 21.9768 14.7614C21.2069 15.2463 20.5769 15.9012 19.897 16.5112C18.4922 17.7761 16.8223 18.601 14.9375 18.4859C14.6376 18.466 14.3476 18.436 14.0626 18.406C13.9926 18.396 13.9926 18.386 14.0626 18.371C14.5376 18.266 15.0276 18.171 15.4624 18.006C17.0423 17.4161 18.4222 16.5062 19.6021 15.2713C19.7071 15.1613 19.807 15.0414 19.902 14.9113L19.897 14.9163Z" fill="white"/>
</svg>

<svg xmlns="http://www.w3.org/2000/svg" width="24" height="24" fill="none" viewBox="0 0 24 24">
    <path fill="#fff" d="M11.953 7.127c-.65.39-1.365 1.15-1.47 1.95-.08.575.19 1.27.48 1.77.305.53.63 1.075.965 1.635.19.31.42.78.45 1.14a1.8 1.8 0 0 1-.335 1.174c-.03.035-.055.04-.085 0a24 24 0 0 1-1.935-2.664c-.55-.88-1.3-2.21-1.05-3.31.335-1.44 1.715-2.645 2.97-3.31a.1.1 0 0 1 .1.005c.98.655 1.9 1.5 2.47 2.535.45.81.6 1.69.46 2.64-.016.09-.04.095-.086.015a12.3 12.3 0 0 0-2.55-3.335 3 3 0 0 0-.3-.24.07.07 0 0 0-.085-.005"/>
    <path fill="#fff" d="M12.027 16.131a3.83 3.83 0 0 0 1.44-1.954 2 2 0 0 0-.24-1.605q-.465-.857-.98-1.685a5.4 5.4 0 0 1-.5-1.01c-.2-.515-.12-1 .21-1.435q.03-.044.06-.005a20.4 20.4 0 0 1 2.055 2.605c.45.69 1.015 1.665 1.02 2.515.01 1.05-.65 2.12-1.345 2.9a7.1 7.1 0 0 1-1.7 1.4.1.1 0 0 1-.075.01c-.075-.026-.135-.08-.2-.126-1.864-1.26-4.1-3.67-3.35-6.18q.059-.179.126-.004c.384.95.899 1.842 1.53 2.65a9.7 9.7 0 0 0 1.884 1.924c.02.015.045.015.065 0"/>
    <path fill="#fff" d="M6.478 10.447q.029 1.71.65 3.254a8.24 8.24 0 0 0 3.72 4.195c.11.06.1.085-.02.07a4.95 4.95 0 0 1-1.905-.59 6.7 6.7 0 0 1-3.25-3.9c-.35-1.13-.5-2.314-.65-3.48a5.6 5.6 0 0 0-.17-.844.03.03 0 0 1 .02-.015q1.561-.015 3.055.36a.1.1 0 0 1 .06.04c.015.02.025.045.025.065v1.05a.05.05 0 0 1-.02.04.05.05 0 0 1-.05.01 6.2 6.2 0 0 0-1.46-.275l-.005.01zm11.004-.02a5.5 5.5 0 0 0-1.45.28c-.005 0-.01 0-.015-.01l-.01-.01-.005-.02V9.562q-.001-.061.05-.07a12.6 12.6 0 0 1 3.05-.35.05.05 0 0 1 .035.035v.025a4 4 0 0 0-.12.55c-.25 1.585-.375 3.284-1.11 4.74-.825 1.64-2.465 3.019-4.26 3.409q-.27.059-.525.065-.12.001-.015-.05c2.8-1.555 4.275-4.2 4.415-7.45a.04.04 0 0 0-.01-.03l-.015-.004h-.015z"/>
    <path fill="#fff" d="M4.079 14.901q.164.226.365.43c.835.89 1.894 1.65 2.99 2.21q1.198.614 2.45.815.232.038-.006.06c-.265.025-.52.05-.755.065-1.75.145-3.385-.56-4.714-1.7-.48-.41-.95-.83-1.425-1.275q-.451-.42-.975-.75a.06.06 0 0 1 .01-.075 9.6 9.6 0 0 1 2.6-1.5q.051-.02.065.036.18.621.48 1.194a.05.05 0 0 1-.015.04 6 6 0 0 0-1.075.425.03.03 0 0 0 .005.025m15.818.015c.02-.03.015-.05-.015-.07a6 6 0 0 0-1.025-.385q-.054-.015-.025-.06.309-.587.49-1.224l.013-.003q.006 0 .012.003a9.3 9.3 0 0 1 2.65 1.524.05.05 0 0 1-.005.045l-.015.015c-.77.485-1.4 1.14-2.08 1.75-1.405 1.265-3.075 2.09-4.96 1.975-.3-.02-.59-.05-.874-.08q-.105-.014 0-.035c.475-.105.965-.2 1.4-.365q2.37-.884 4.14-2.735.156-.165.299-.36z"/>
</svg>
